src/status/32/printer-printing.svg

<svg width="32" height="32" version="1.1" viewBox="0 0 32 32" xmlns="http://www.w3.org/2000/svg" xmlns:xlink="http://www.w3.org/1999/xlink">
 <defs>
  <filter id="alpha" x="0%" y="0%" width="100%" height="100%">
   <feColorMatrix in="SourceGraphic" values="0 0 0 0 1 0 0 0 0 1 0 0 0 0 1 0 0 0 1 0"/>
  </filter>
  <mask id="mask0">
   <g filter="url(#alpha)">
    <rect width="32" height="32" style="fill-opacity:.6;fill:rgb(0%,0%,0%)"/>
   </g>
  </mask>
  <clipPath id="clip1">
   <rect width="32" height="32"/>
  </clipPath>
  <g id="surface5" clip-path="url(#clip1)">
   <path d="m9.332031 0.0078125h13.335938c3.332031 0 3.332031-0.3320315 3.332031 3.3320315v13.328125c0 3.332031 0 3.332031-3.332031 3.332031h-13.335938c-3.332031 0-3.332031 0-3.332031-3.332031v-13.328125c0-3.3320315 0-3.3320315 3.332031-3.3320315z" style="fill-opacity:.941176;fill-rule:evenodd;fill:rgb(18.039216%,20.392157%,25.098041%)"/>
  </g>
 </defs>
 <g id="surface1">
  <use mask="url(#mask0)" xlink:href="#surface5"/>
  <path d="M 3.199219 8 L 28.800781 8 C 32 8 32 8 32 11.199219 L 32 20.800781 C 32 24 32 24 28.800781 24 L 3.199219 24 C 0 24 0 24 0 20.800781 L 0 11.199219 C 0 8 0 8 3.199219 8 Z M 3.199219 8 " style="fill-rule:evenodd;fill:rgb(18.039216%,20.392157%,25.098041%)"/>
  <path d="m6 16h20v16h-20z" style="fill:rgb(53.333336%,75.294119%,81.568629%)"/>
  <path d="m14 18v6h-4l6 6 6-6h-4v-6z" style="fill:rgb(18.039216%,20.392157%,25.098041%)"/>
 </g>
</svg>

<svg xmlns="http://www.w3.org/2000/svg" xmlns:xlink="http://www.w3.org/1999/xlink" width="32" height="32" viewBox="0 0 32 32" version="1.1">
<defs>
<filter id="alpha" filterUnits="objectBoundingBox" x="0%" y="0%" width="100%" height="100%">
  <feColorMatrix type="matrix" in="SourceGraphic" values="0 0 0 0 1 0 0 0 0 1 0 0 0 0 1 0 0 0 1 0"/>
</filter>
<mask id="mask0">
  <g filter="url(#alpha)">
<rect x="0" y="0" width="32" height="32" style="fill:rgb(0%,0%,0%);fill-opacity:0.6;stroke:none;"/>
  </g>
</mask>
<clipPath id="clip1">
  <rect x="0" y="0" width="32" height="32"/>
</clipPath>
<g id="surface5" clip-path="url(#clip1)">
<path style=" stroke:none;fill-rule:evenodd;fill:rgb(18.039216%,20.392157%,25.098041%);fill-opacity:0.941176;" d="M 9.332031 0.0078125 L 22.667969 0.0078125 C 26 0.0078125 26 -0.324219 26 3.339844 L 26 16.667969 C 26 20 26 20 22.667969 20 L 9.332031 20 C 6 20 6 20 6 16.667969 L 6 3.339844 C 6 0.0078125 6 0.0078125 9.332031 0.0078125 Z M 9.332031 0.0078125 "/>
</g>
</defs>
<g id="surface1">
<use xlink:href="#surface5" mask="url(#mask0)"/>
<path style=" stroke:none;fill-rule:evenodd;fill:rgb(18.039216%,20.392157%,25.098041%);fill-opacity:1;" d="M 3.199219 8 L 28.800781 8 C 32 8 32 8 32 11.199219 L 32 20.800781 C 32 24 32 24 28.800781 24 L 3.199219 24 C 0 24 0 24 0 20.800781 L 0 11.199219 C 0 8 0 8 3.199219 8 Z M 3.199219 8 "/>
<path style=" stroke:none;fill-rule:nonzero;fill:rgb(53.333336%,75.294119%,81.568629%);fill-opacity:1;" d="M 6 16 L 26 16 L 26 32 L 6 32 Z M 6 16 "/>
<path style=" stroke:none;fill-rule:nonzero;fill:rgb(18.039216%,20.392157%,25.098041%);fill-opacity:1;" d="M 14 18 L 14 24 L 10 24 L 16 30 L 22 24 L 18 24 L 18 18 Z M 14 18 "/>
</g>
</svg>
